X: 25497
T: Margaree, The
R: reel
M: 4/4
K: Dmajor
e/e/e ed cAAB|AEAg fdfa|e/e/e ed c2 Ac|1 Bcde fdfa:|2 Bcde fdf^g
|:abaf ecce|abag fdf^g|abaf ecac|1 Bcde fdf^g:|2 Bcde g2 z2
|:aecf edce|aece g2 fg|1 aecf ecac|Bcde g2 fg:|afge fdec|Bcde fdfa||

